-----BEGIN PGP PUBLIC KEY BLOCK-----

mQINBGpVGMkBEADYk+4yrVdhBUnjdNdZq+gLad/lQQtVVLjbjZdtXqoeHL+kpwG5
v1u92HSD8j+bTWxPijvLOMNu/+OBY20kcoSyz/6OMoJf4ZkPtn3kyhzjnus0GNfb
pNlZ6fpvax5e637v5DFW2Hw/ndpWYSlsGwqmtZksqa8jDVid+bKbwb9vgsCYx3n2
DQIt1bzRUCAkzsq5iAKfbPxPmrwQ8xLn8rbKlUn81RMnSKFl1q7ah7MXIw0DU65k
4oUKF6nXhVvX1FRTCHjzITdS4vrZsFtUaq7ekNh8MAf+YlHkEsmLe0I6psuj8ymK
c9CjMd9Dq5V+aTWBd2DZn84vu+3FdQUzaBKAbWmZeybA4vH5vfXOGFrG/4sCGT9r
DB1NGj71mqrbAV83aMGK+nEhM24I6yjP8uEpLI05jgyppKB+pjGux2wYOLXUqznl
ckc5SjdXLIFFNtDhn9l+4YF1w7ttjazWA7ycvNnlPa953+cH3QW+eP6vYPl5Kqvp
05U0KmNmIeBUaUbK+FTLOJ0Hmr6FZM4G/xP45zy3ii5uwpX96J4zb3XJtYMRaK8X
6oA5xyvfAry2TV7r9W+j1UrofAfR57gytkfboJA5maXgQfsPQoMrViKOWTnoQpCU
8Ik8+vJ30aaqXtsc6hTWggL9OS26KOdOz7bVyL1en1ewg5GTrK7FS+BKpQARAQAB
tExKZWFuIExldGVzc2llciAoR2VuZXJhbCBwdXJwb3NlIFBHUCBrZXlwYWlyKSA8
amVhbi5sZXRlc3NpZXJAcHJvdG9ubWFpbC5jb20+iQJUBBMBCgA+FiEEMiUKSaUd
fyyRKOk6VIO1XLGdXVsFAmpVGMkCGwMFCQPCZwAFCwkIBwIGFQoJCAsCBBYCAwEC
HgECF4AACgkQVIO1XLGdXVttfQ//ZobLPjTjnWqH7QoAAx4OzT3g6hFB5tqJkSWd
TEvCPzRgzYkjKCfhqfhllR4ybbUwG0PQkvODbD0dnFKdWcJhqg7HYC9IJH5iuYSF
bfk8bWOmg3Sikp4lupTSj4LLoQj7Erajhugiz4usQENGL6+B/l6UMKkMzZCZuQcI
5HmgoRXCcZ9wcmj0AS1fV5Ygk6YH28rWENU9rVQLjg5FH5+C9+XJjbWQm++EyhTb
Fx6yezYR4mgfJG6OPH5ITY9t/AKArOysgpsazHHPRa0w5IDkSkL9wNJrF0FqygtC
1JyOUSJy6BMk2U7aCKyAzBpjGYOmz3lFtZ9DYwQ95fUKteX6mqsXka0GTjl8LJuB
IVVQuNLpi631CNaQdyAa17Pm5daCz+6Ng6RCLXVWs++z9q5ZwKhSIs6oRpS+Oa8J
yKDKNAwQnMzxENiqvm8L8MsQAhw0sthQEkZ6ieVsgDG8n6OZRZqXt2xF3PLP4R0X
skhHgCyjfPluoPmEmgZuFgY5BOtOM/u2M0Om2vl3OKQviVcsZtFOjBMyrFSClDU+
81qOf/txyxGRuOUsfFLwlwLUbZniFfs5bZkEsOMM7iNYmMy8OYONY3hS9S25abFj
5jPwwHqh7ngVQqWq0jTbWHYph/kh/rCLYH48fuEk6ZvP/kUT5KmwddLeUyqldZuH
PPZhf+u5Ag0EalUYyQEQAO23khDZCfspvttlNXDKQQcNJv4lfqw9ZonbThkJVqZF
W+upxg/tt/yihjtHNoOhaRMV3lUfIEXQJLrp967wTcrpTpqniBp3+K50/9rGOglj
5rk6k6dUwpijaL7dMtF/TwYx6fmPEtMqC3/C+EardPDiGdNDBajuD5LW6bsj1klh
rlrKlo0mcDF3Mq8Wuoov0qMl+DgjLRVFGxphv1v2NG+EqwJzNr3lgvM+BfWUjCxA
NG1wmNUob80tWLmqTMyDn64qW0xcgGbR8TQYW8LB8iy8AocZsS3gv5Q5D5RcvBsR
0q9bLZ2HAaWDAZT9ydk0dHh765tMwJ/iTmj0EWX/dc8ccebHDUZPuITIgspQ+YRc
dzxf539QAXGV9zxtANAGjjvYcXOHPrWYxI5cyKjCllHaXgaS0a8GaXD0Kc7mNoYR
iBjI9cxtdTB1YN0HUr6NW2SLx6JwE8eYBOrnpuXo0EANCkTBahkzqrYSap0IMPN6
Vh6hmtIZCrQSJ3yz8ae6YVHo3TZQZrJj6BEm7oLnvhKTsNSqePvyoSI2XIApzlRo
S1RInl51lz95qUpmGeUCY32BtnK2s9bWNHFbtHO9d+RhLobhzM/4mZt10Be5qPwP
pUeYuQfBFK9OabIug2VCB2I2Qj2xU6H/WhogxDYYJFZXDTMsayzEfxQ//hlCcsEL
ABEBAAGJAjwEGAEKACYWIQQyJQpJpR1/LJEo6TpUg7VcsZ1dWwUCalUYyQIbDAUJ
A8JnAAAKCRBUg7VcsZ1dW4qlD/9rYjg0r0Z3fCu0zSa1I65/zPiMXEKQwDkAaq3/
Hjg/XlHStIuDX5hwRmfAHaMB01+9rvqm7pLK6Zct2tMFwqAMPPtNVDdqNff2Ds+e
LPVawU2+Jk7luIQrqsJUXSkhKOJe+3x5y215QlrHTEI9uxjexnJ0J6F9qoe7bSys
aG7FLWlyuYOg9MC/OIZlvCQlXMzJBPW4y/vsd43UkCEP0326SUisr+d9VLxI3CyO
JGboV2qYkkICiI0BdD7v44kRFI1/6cibd54D3LBxwA2uNM3DW0cabBet1JhLgHKA
VG5yKU8+7Va/BE3cQexI2zclKvNqtjMLO/Aiw1hsPPWDC4n5JcsZB3OM3DhfHEly
F9Np2EQlb1daADse0Si/yvuPkT2S0gIHZI3QlTYJESmPbA725j0Eg7QlcMl0sUEW
avgeG3vrElm5OHMbOMjNbFV04nMwLgd4mKfXgPOCumhRxeDbfq9uBrYmkb06viEh
fGN7CBWQbXG5tz6vge9Dn+iG7IQMHwjvyCpC8EAMcLKPeYrJVyGoZ00xtARcDft7
h1DZg1fGeiVl2ff9bp+6oVmTC5t6UPMKfgtbwC+dSDIBsKt5n1pSoIpzsVl/coQJ
xpnyr7dAf3auKeTH5BrG9v3zV7/EvL3UxxNRy0XeC5QJD1ECGsoj86j07L0Drxqt
3hEouLkCDQRqVRqRARAA6t178SGg4pWsovB2707Ij2Akrz7eM4p0TA6/yfUDOJrn
N/pNFsUQVP4thkdc4sn+mdkOns+gj+r9h9R2r+qa9fP7CTt0AXELark4+KggHClF
U9Lb8Xk6/e84KDwPBnj8XSbwa3a4Ru3n7FX0tgxx6rAKve9PmwfblJ/cVOEQny6K
c3erYlACTwWBUzW8K1iQqA0219arQ7EdrTcXtYmszAJP5opvQVvFBP9QswoF4ZPQ
SKNMHqGeJukm+bXW0rqhCVIZ3kvcdDkkkcmUzsmd6OeMz37g5qT2GGTM8jCDJ+Rr
Y9VNuJ/tqZQ6fkzVhf7ZCzJNow6KiCSpVy+ZX4upFv++MD00U/aQx9kQqHGLylUW
5tDEiRutTUwj0/4VqdQhznLPhQzZYJa42K2iH3KEd5+4k8HXQ3FI+c6lpe1TVwMp
k4/NxjcTWLJnHims8fJpf3E4bVeBH4J8DQkbDD9Q0V79kJhMlNZt1orWNFWWw91i
VX1u48wLCm4j8V2SXKiBeLM66p0/0lTCAE46SdrhTC2/uBfynAw3iWysfJ+/NHYp
/uCvcGQnEODXI0BN5xiQbDNTjrHjKTXMaDAUXV1GZ7/WZqt+sJA/YEncz4DW71/D
8QGnk30rqRxNQP1y5xtAqZQzSDci4rgdLF5Fp7F+Aq40iEMOjeRXtgEQrLL73hkA
EQEAAYkEcgQYAQoAJhYhBDIlCkmlHX8skSjpOlSDtVyxnV1bBQJqVRqRAhsCBQkB
4TOAAkAJEFSDtVyxnV1bwXQgBBkBCgAdFiEElpLDCe3ImR9flqBITUuL9xvCmXsF
AmpVGpEACgkQTUuL9xvCmXt97A/7BWu+y9bnm2fQbKT69p3iGmkGztsnAYYWq/OM
2hEj66oW/D7VsTLDbWrebuRNCpc91+i9edseheBgCQSNwMsHE71P4MfpvJki9YgL
GkOiCvTpa1Hubf8uLzhxpjwwL37xrhnw/bm3wsllkuUXjaRvxfDy5PfyGEnGSMVI
WS1mLXszyLRooXGrl9CTt8FZGfIKdZfBo1Fma6b24efMewLYbU2ynn1Th/cccxp+
wYlwTYGi1NpC/ZlgiFpfkdugs5GdFaeYiq2xHJFffYnPPk6VeZm4PXW3ApY99xFX
OD2w1b39wtUeo0A+x8NLRIfK1BFju4IMfrN+04r05mP30L35YEhcmxP7cfnV3CTH
NCW5hT5C74nzr6Y6sFI6GFFm3gr/+nmihIR/AOt4fdwtbGOOe93Nu/WynjSGkLE5
Isg8/bEoaNl/2VmS9SVyYhy0gPRXaOcNImxkFaIdfL5a5NdyaoLCpgy04odyYzKa
dS06kbnDSqhlvbBUbrIL8tioOTsj+oKLBUIoIyWS5+W42RxDpWhruOX/CvZUjMjl
qzFgV2lHoq6TwGmzWvV32l/mUWIC4PMNZcb1w5q/RARkuwq5FXY83N7eVRuEDsNd
MLmVrW8+w2QcV2WTzsy0PacM1Jd9llRkuslm6CvfSEGpuYbSFBVlzFycboqy/L8R
aOw/9PUijBAAw2/ZhvpXM5huDzf855OJE+jZzHMakB1cB9tciSHQ3RZG/P5yJC/x
1jUYTvAr4M5SspnQRk2W2TpcbtwZmFQGNfuq+wOLS6r9920eAMSuecyci2MOY5ko
cYlTar3arbuhkyci3Oza9vowF+K0ZVbraRt0swDRr80qiJtCOWBBSJN9NB4oiape
fPC8Xs7PjkWma/hZ1aoRMiZsvpyk0vY3yGUBh53aU9jPX9wpO3eM7bKeV5CgvVqr
kISLGov6tKihQQTZLnlIkgby1B+YG7nWklrXF6l9mlPjLQXKdUSGccy83CX59jzL
6ptykBxLH/XIS3uJLUWkStUw+KAZlJ3AgIC8HyE8xbzIOhcnYGKrqDGPPvNwXta7
eoGK++RDanysoAPXzjEkfreujeXxIRsCbBojNl4cNPAk5RmYAL0PgtA9tJgn7721
WnwElll+hd4OerH/DbsS4yWav7QRl1SFY7Ya0GJkm385Ucnbic/FzO+FpovtlyRw
YqeSbWAAEbXHNcNEJ0W8f5DY1VBxtJAhiSoEu4lBjzVr5+UYgNKoUrJtTbxeasYo
2G27KsflS0trR29u2pkXyvHiIvz5Pke73//Z8RzGuRrfKMNF97jn9QBADzH01s8d
vVWbMfjSb0PnPunZjucggn+GX3WHEVIjsRGcNhvgvZ2AP64322pPhU4=
=OOOQ
-----END PGP PUBLIC KEY BLOCK-----
